assets/images/clients/ABBOTT.svg

<svg width="300" height="120" viewBox="0 0 300 120" fill="none" xmlns="http://www.w3.org/2000/svg">
<path d="M120.807 54.6914H85.9795V60.0469H119.068V60.051C120.025 60.051 120.795 60.8253 120.795 61.7781V79.7718L120.787 79.7841C120.779 80.7368 120.007 81.5019 119.058 81.5019H93.0566C92.1039 81.5019 91.3273 80.7307 91.3273 79.7718V72.4994C91.3273 71.5446 92.1039 70.7723 93.0566 70.7723H115.43V65.4189H91.314C88.3665 65.4189 85.9795 67.8054 85.9795 70.755V81.5153C85.9795 84.4638 88.3665 86.8564 91.314 86.8564H120.807C123.756 86.8564 126.141 84.4638 126.141 81.5153V60.0316C126.141 57.082 123.756 54.6914 120.807 54.6914Z" fill="#949494"/>
<path d="M146.042 54.7021L150.225 67.2295C150.726 68.7566 151.075 69.1114 151.95 69.1114H152.803V71.3154H143.667V69.1114H144.413C145.166 69.1114 145.795 69.0099 145.795 68.735C145.795 68.4827 145.767 68.2079 145.669 67.8336L145.144 66.0275H140.035L139.737 67.0295C139.459 67.9064 139.361 68.2818 139.361 68.6325C139.361 69.0375 140.236 69.1124 140.915 69.1124H141.636V71.3163H134.28V69.1114H135.13C136.006 69.1114 136.355 68.7566 136.859 67.2295L141.039 54.7021H146.042ZM140.755 63.8246H144.391L142.588 58.4332H142.541L140.755 63.8246Z" fill="#949494"/>
<path d="M154.251 57.784C154.251 57.0805 154.076 56.7071 153.35 56.7071H152.2V54.7021H158.409V60.9407C159.332 59.8864 160.51 59.2116 161.635 59.2116C165.389 59.2116 166.788 62.1457 166.788 65.4501C166.788 68.7566 165.389 71.6855 161.635 71.6855C160.059 71.6855 158.658 71.1379 157.778 69.7586L157.054 71.3154H154.25L154.251 57.784ZM158.409 65.4501C158.409 68.0058 158.982 69.536 160.384 69.536C161.788 69.536 162.362 68.0058 162.362 65.4501C162.362 62.8944 161.788 61.3694 160.384 61.3694C158.982 61.3694 158.409 62.8944 158.409 65.4501Z" fill="#949494"/>
<path d="M168.297 57.784C168.297 57.0805 168.119 56.7071 167.398 56.7071H166.245V54.7021H172.455V60.9407C173.38 59.8864 174.557 59.2116 175.683 59.2116C179.435 59.2116 180.839 62.1457 180.839 65.4501C180.839 68.7566 179.435 71.6855 175.683 71.6855C174.103 71.6855 172.704 71.1379 171.824 69.7586L171.1 71.3154H168.297V57.784ZM172.453 65.4501C172.453 68.0058 173.03 69.536 174.429 69.536C175.832 69.536 176.407 68.0058 176.407 65.4501C176.407 62.8944 175.832 61.3694 174.429 61.3694C173.031 61.3694 172.453 62.8944 172.453 65.4501Z" fill="#949494"/>
<path d="M194.953 65.4495C194.953 69.4584 192.224 71.685 188.495 71.685C184.762 71.685 182.033 69.4584 182.033 65.4495C182.033 61.4395 184.762 59.2109 188.495 59.2109C192.224 59.2109 194.953 61.4395 194.953 65.4495ZM186.466 65.4495C186.466 68.4042 186.991 69.6831 188.495 69.6831C189.996 69.6831 190.522 68.4042 190.522 65.4495C190.522 62.4928 189.996 61.2159 188.495 61.2159C186.991 61.2159 186.466 62.4928 186.466 65.4495Z" fill="#949494"/>
<path d="M212.803 65.6521V67.6078C212.803 68.7555 212.554 69.4365 211.601 69.4365C211.024 69.4365 210.751 69.0088 210.751 68.4816V61.5898H213.828V59.589H210.751V54.9277H208.273C208.069 57.0066 207.421 59.589 204.92 59.589H201.014V54.9277H198.537C198.333 57.0066 197.684 59.589 195.182 59.589V61.5898H196.861V67.8817C196.861 70.4375 198.286 71.6855 200.862 71.6855C203.869 71.6855 205.067 70.337 205.067 67.8817V65.6511H203.071V67.6069C203.071 68.7545 202.818 69.4354 201.865 69.4354C201.289 69.4354 201.015 69.0078 201.015 68.4807V61.5888H206.599V67.8807C206.599 70.4364 208.022 71.6846 210.6 71.6846C213.606 71.6846 214.808 70.3359 214.808 67.8807V65.6501H212.803" fill="#949494"/>
</svg>

<svg width="300" height="120" viewBox="0 0 300 120" fill="none" xmlns="http://www.w3.org/2000/svg"><path d="M120.807 54.691H85.979v5.356h33.089v.004c.957 0 1.727.774 1.727 1.727v17.994l-.008.012a1.73 1.73 0 0 1-1.729 1.718H93.057a1.73 1.73 0 0 1-1.73-1.73v-7.273a1.73 1.73 0 0 1 1.73-1.727h22.373V65.42H91.314a5.333 5.333 0 0 0-5.334 5.336v10.76a5.338 5.338 0 0 0 5.334 5.341h29.493a5.336 5.336 0 0 0 5.334-5.34V60.031c0-2.95-2.385-5.34-5.334-5.34Zm25.235.011 4.183 12.528c.501 1.527.85 1.881 1.725 1.881h.853v2.204h-9.136v-2.204h.746c.753 0 1.382-.101 1.382-.376 0-.252-.028-.527-.126-.901l-.525-1.806h-5.109l-.298 1.001c-.278.877-.376 1.253-.376 1.603 0 .405.875.48 1.554.48h.721v2.204h-7.356v-2.205h.85c.876 0 1.225-.354 1.729-1.882l4.18-12.527h5.003Zm-5.287 9.123h3.636l-1.803-5.392h-.047l-1.786 5.392Zm13.496-6.041c0-.703-.175-1.077-.901-1.077h-1.15v-2.005h6.209v6.239c.923-1.055 2.101-1.73 3.226-1.73 3.754 0 5.153 2.935 5.153 6.24 0 3.306-1.399 6.235-5.153 6.235-1.576 0-2.977-.548-3.857-1.927l-.724 1.556h-2.804l.001-13.531Zm4.158 7.666c0 2.556.573 4.086 1.975 4.086 1.404 0 1.978-1.53 1.978-4.086s-.574-4.08-1.978-4.08c-1.402 0-1.975 1.524-1.975 4.08Zm9.888-7.666c0-.703-.178-1.077-.899-1.077h-1.153v-2.005h6.21v6.239c.925-1.055 2.102-1.73 3.228-1.73 3.752 0 5.156 2.935 5.156 6.24 0 3.306-1.404 6.235-5.156 6.235-1.58 0-2.979-.548-3.859-1.927l-.724 1.556h-2.803V57.784Zm4.156 7.666c0 2.556.577 4.086 1.976 4.086 1.403 0 1.978-1.53 1.978-4.086s-.575-4.08-1.978-4.08c-1.398 0-1.976 1.524-1.976 4.08Zm22.5 0c0 4.008-2.729 6.235-6.458 6.235-3.733 0-6.462-2.227-6.462-6.236 0-4.01 2.729-6.238 6.462-6.238 3.729 0 6.458 2.229 6.458 6.239Zm-8.487 0c0 2.954.525 4.233 2.029 4.233 1.501 0 2.027-1.279 2.027-4.234 0-2.956-.526-4.233-2.027-4.233-1.504 0-2.029 1.277-2.029 4.233Zm26.337.202v1.956c0 1.147-.249 1.828-1.202 1.828-.577 0-.85-.427-.85-.954V61.59h3.077v-2.001h-3.077v-4.661h-2.478c-.204 2.079-.852 4.661-3.353 4.661h-3.906v-4.661h-2.477c-.204 2.079-.853 4.661-3.355 4.661v2h1.679v6.293c0 2.555 1.425 3.803 4.001 3.803 3.007 0 4.205-1.348 4.205-3.803v-2.23h-1.996v1.955c0 1.147-.253 1.828-1.206 1.828-.576 0-.85-.427-.85-.954v-6.892h5.584v6.292c0 2.555 1.423 3.804 4.001 3.804 3.006 0 4.208-1.35 4.208-3.804v-2.23h-2.005" fill="#949494"/></svg>
